X:0
T:Altered by Accretion
M:C|
L:1/8
C:© Paul Gitlitz 2007
R:Reel
K:Am
"E"E>A^G>B "Am"A>BcA|"G"Bcdf  "Am"e3a| "Dm"fdfd "Am"ecAc|"E"BG^F=F E3E|!
"E"E>A^G>B "Am"A>BcA|"G"B (3BBc d "Am" c3e|"E7" e^ded cBAc|"E"BA^GB "Am"A4:|!
|:"F"a2ab agf2|"Em"edef e4|"E7"B^ABc dcB2|"C"cBcd e3^g|!
"F"a2ab agf2|"Em"edef e4|"Am"e^ded eded|"E7"ecBc "Am"A4:|]
